X:395
T: Jig for Willie
C: BB
R: jig
Q: 1/8=320
M: 6/8
L: 1/8
K: Em
E/F/|"Em"GFG AGA|"Bm"BAB "Em"e2 f|"G"g2 e dBG|"D7"ABc AFD|
"Em"GEE BEE|"G"dBd "C"e2 f|"G"gdB "Am"cBA|"Em"GED "Em"E2 :|
[K:Gm] A|"Gm"BGG dGG|"F"AFF cFF|"Gm"Bcd "F"cAc|"Gm"BGB "Dm"AFD|
"Gm"dgg bgg|"F"cff afc|"Gm"BGB "F"AFA|"Gm"BGG "Gm"G2 :|
%%%%%%%%%%%%%%%%%%%%%%%%%%%%%%%%%%%%%%%%%%%
